img/stats.svg

<svg xmlns="http://www.w3.org/2000/svg" width="512" height="512" viewBox="0 0 24 24"><path d="M23 22H3a1 1 0 0 1-1-1V1a1 1 0 0 0-2 0v20a3 3 0 0 0 3 3h20a1 1 0 0 0 0-2Z"/><path d="M15 20a1 1 0 0 0 1-1v-7a1 1 0 0 0-2 0v7a1 1 0 0 0 1 1ZM7 20a1 1 0 0 0 1-1v-7a1 1 0 0 0-2 0v7a1 1 0 0 0 1 1ZM19 20a1 1 0 0 0 1-1V7a1 1 0 0 0-2 0v12a1 1 0 0 0 1 1ZM11 20a1 1 0 0 0 1-1V7a1 1 0 0 0-2 0v12a1 1 0 0 0 1 1Z"/></svg>

<?xml version="1.0" encoding="UTF-8"?>
<svg xmlns="http://www.w3.org/2000/svg" id="Outline" viewBox="0 0 24 24" width="512" height="512"><path d="M23,22H3a1,1,0,0,1-1-1V1A1,1,0,0,0,0,1V21a3,3,0,0,0,3,3H23a1,1,0,0,0,0-2Z"/><path d="M15,20a1,1,0,0,0,1-1V12a1,1,0,0,0-2,0v7A1,1,0,0,0,15,20Z"/><path d="M7,20a1,1,0,0,0,1-1V12a1,1,0,0,0-2,0v7A1,1,0,0,0,7,20Z"/><path d="M19,20a1,1,0,0,0,1-1V7a1,1,0,0,0-2,0V19A1,1,0,0,0,19,20Z"/><path d="M11,20a1,1,0,0,0,1-1V7a1,1,0,0,0-2,0V19A1,1,0,0,0,11,20Z"/></svg>
